(msg ##########################)
(msg #### G17 XY ARC TESTS ####)
(msg ##########################)
(
( ASSUMPTIONS
(   This test is set up for a Shapeoko2 but could work on most any full-size tabletop machine with no or minor edits
(   The machine has properly configured homing switches. If not comment out the homing sequence n10 - n12 and manually home
(
( PRECONDITIONS - “before” (all tests unless otherwise noted)
(   Machine work dimensions required: -100,-100,-75 to 100,100,0
(   Zero set to middle of XY table, Z at max
(   Starting position 0,0,-25 set to 0,0,0
(
n1 g21 g17 g90 g54
( Zero and set table or comment out to zero manually
(n10 g28.2 x0 y0 z0
(n11 g0 x100 y100 z-25
(n12 g0 x150 y150 z-25
(n13 g28.3 x0 y0 z0
(
n20 x10 ( do a little dance to get your attention )
n21 x0
n22 g4 p2 ( pause to examine proper starting point )
(
f2000 ( Set feed rate for all tests unless overridden)
(******************************************************************
(******************************************************************
(******************************************************************
( START TESTS
(******************************************************************
(msg #### G17 clockwise arcs with I offsets ####)
(
( PERFORMS
(   CW   90 arc
(   CW  180 arc
(   CW  270 arc
(   CW  360 arc
(   CW  540 arc
(   CW  720 arc
(
( PRECONDITIONS - See “before”
(
( RESULTS
(   CW should be clockwise as viewed looking down on the XY plane (positive Z)
(   Partial circles should return to zero with a traverse
(
g0 x0 y0 z0
(msg ################################################
(msg ### G17 CW movement in XY plane - no Z movement
(msg ### G17 CW 90 degrees)
g4 p0.5
g17 g2 i20 x20 y20
g0 x0 y0 z0
(
(msg ### G17 CW 180 degrees)
g4 p0.5
g17 g2 i20 x40
g0 x0 y0 z0
(
(msg ### G17 CW 270 degrees)
g4 p0.5
g17 g2 i20 y-20
g0 x0 y0 z0
(
(msg ### G17 CW 360 degrees, P=0)
g4 p0.5
g17 g2 i20
g0 x0 y0 z0
(
(msg ### G17 CW 360 degrees, P=1)
g4 p0.5
g17 g2 i20
g0 x0 y0 z0
(
(msg ### G17 CW 540 degrees)
g4 p0.5
g17 g2 i20 x40 p1
g0 x0 y0 z0
(
(msg ### G17 CW 720 degrees)
g4 p0.5
g17 g2 i20 p2
g0 x0 y0 z0
(
(msg ################################################
(msg ### G17 CCW movement in XY plane - no Z movement
(msg ### G17 CCW 90 degrees)
g4 p0.5
g17 g3 i20 y-20
g0 x0 y0 z0
(
(msg ### G17 CW 180 degrees)
g4 p0.5
g17 g3 i20 x40
g0 x0 y0 z0
(
(msg ### G17 CW 270 degrees)
g4 p0.5
g17 g3 i20 x20 y20
g0 x0 y0 z0
(
(msg ### G17 CW 360 degrees, P=0)
g4 p0.5
g17 g3 i20
g0 x0 y0 z0
(
(msg ### G17 CW 360 degrees, P=1)
g4 p0.5
g17 g3 i20
g0 x0 y0 z0
(
(msg ### G17 CW 540 degrees)
g4 p0.5
g17 g3 i20 x40 p1
g0 x0 y0 z0
(
(msg ### G17 CW 720 degrees)
g4 p0.5
g17 g3 i20 p2
g0 x0 y0 z0
(msg ################################################
(msg ### G17 CW movement in XY plane - WITH Z movement
(msg ### G17 CW 90 degrees)
g4 p0.5
g17 g2 i20 x20 y20 z-20
g0 x0 y0 z0
(
(msg ### G17 CW 180 degrees)
g4 p0.5
g17 g2 i20 x40 z-20
g0 x0 y0 z0
(
(msg ### G17 CW 270 degrees)
g4 p0.5
g17 g2 i20 y-20 z-20
g0 x0 y0 z0
(
(msg ### G17 CW 360 degrees, P=0)
g4 p0.5
g17 g2 i20 z-20
g0 x0 y0 z0
(
(msg ### G17 CW 360 degrees, P=1)
g4 p0.5
g17 g2 i20 z-20
g0 x0 y0 z0
(
(msg ### G17 CW 540 degrees)
g4 p0.5
g17 g2 i20 x40 z-20 p1
g0 x0 y0 z0
(
(msg ### G17 CW 720 degrees)
g4 p0.5
g17 g2 i20 z-20 p2
g0 x0 y0 z0
(
(msg ###################################################
(msg ### G17 CCW movement in XY plane - WITH Z movement
(msg ### G17 CCW 90 degrees)
g4 p0.5
g17 g3 i20 y-20
g0 x0 y0 z0
(
(msg ### G17 CW 180 degrees)
g4 p0.5
g17 g3 i20 x40 z-20
g0 x0 y0 z0
(
(msg ### G17 CW 270 degrees)
g4 p0.5
g17 g3 i20 x20 y20 z-20
g0 x0 y0 z0
(
(msg ### G17 CW 360 degrees, P=0)
g4 p0.5
g17 g3 i20 z-20
g0 x0 y0 z0
(
(msg ### G17 CW 360 degrees, P=1)
g4 p0.5
g17 g3 i20 z-20
g0 x0 y0 z0
(
(msg ### G17 CW 540 degrees)
g4 p0.5
g17 g3 i20 x40 z-20 p1
g0 x0 y0 z0
(
(msg ### G17 CW 720 degrees)
g4 p0.5
g17 g3 i20 z-20 p2
g0 x0 y0 z0
