N1 ( This file was created automatically using CamBam )
N2 ( http://www.brusselsprout.org/CAMBAM )
N3 ( 4/10/2015 1:18:46 PM )
N4 ( T0 : 0.5 )
N5 G21
N6 G90
N7 G64
N8 G00 Z1.5
N9 ( MOPPocket_2 )
N10 ( T0 : 0.5 )
N11 M06 T0
N12 M03
N13 G00 X2.113491 Y7.883867
N14 G01 F30 Z-0.1
N15 G03 F100 X1.971503 Y7.51505 I0.408012 J-0.368817
N16 G01 Y5.073479
N17 G03 X1.991618 Y4.738461 I2.215818 J-0.035073
N18 G03 X1.997049 Y4.705984 I0.544939 J0.074442
N19 G03 X2.037055 Y4.570417 I0.760286 J0.150671
N20 G03 X1.845409 Y4.572579 I-0.217654 J-10.797105
N21 G03 X1.84296 I-0.001325 J-0.549998
N22 G03 X1.788731 Y4.572281 I0.01597 J-7.816004
N23 G03 X1.875206 Y4.845538 I-0.874587 J0.427085
N24 G03 X1.912364 Y5.351946 I-2.811107 J0.460835
N25 G01 Y10.302361
N26 G03 X1.877941 Y10.661902 I-1.609217 J0.027347
N27 G03 X1.877862 Y10.662275 I-0.538157 J-0.113521
N28 G03 X1.823288 Y10.826337 I-0.753132 J-0.159414
N29 G01 X2.090168
N30 G03 X1.997383 Y10.503649 I0.847529 J-0.41838
N31 G03 X1.971503 Y10.03267 I3.423066 J-0.424296
N32 G01 Y8.252684
N33 G03 X2.113491 Y7.883867 I0.55 J0
N34 G01 X2.263677
N35 G03 X2.071503 Y7.51505 I0.257826 J-0.368817
N36 G01 Y5.072678
N37 G03 X2.090698 Y4.751996 I2.115818 J-0.034272
N38 G03 X2.095141 Y4.725424 I0.445859 J0.060907
N39 G03 X2.207075 Y4.465585 I0.662194 J0.131232
N40 G03 X1.845168 Y4.472579 I-0.387675 J-10.692273
N41 G03 X1.843165 Y4.47258 I-0.001084 J-0.449999
N42 G03 X1.607561 Y4.4685 I0.015766 J-7.716004
N43 G03 X1.776492 Y4.861526 I-0.693417 J0.530865
N44 G03 X1.812364 Y5.351139 I-2.712393 J0.444847
N45 G01 Y10.303224
N46 G03 X1.780094 Y10.641262 I-1.509217 J0.026483
N47 G03 X1.78003 Y10.641567 I-0.44031 J-0.092881
N48 G03 X1.643695 Y10.926337 I-0.6553 J-0.138706
N49 G01 X1.663439
N50 G01 X2.270167
N51 G03 X2.096761 Y10.492458 I0.66753 J-0.51838
N52 G03 X2.071503 Y10.033351 I3.323688 J-0.413104
N53 G01 Y8.252684
N54 G03 X2.263677 Y7.883867 I0.45 J0
N55 G00 Z1.5
N56 G00 X6.41451 Y8.252684
N57 G01 F30 Z-0.1
N58 G01 F100 Y10.304493
N59 G03 X6.386529 Y10.600073 I-1.267661 J0.02911
N60 G03 X6.215634 Y10.87882 I-0.474006 J-0.098844
N61 G03 X6.198928 Y10.891127 I-0.1565 J-0.194956
N62 G03 X5.878616 Y11.013825 I-0.425068 J-0.63022
N63 G03 X5.521156 Y11.057762 I-0.665513 J-3.938458
N64 G01 X5.523753 Y11.121825
N65 G02 X5.588141 Y11.119091 I-0.241082 J-6.438139
N66 G03 X5.599995 Y11.11881 I0.011853 J0.249719
N67 G01 X6.059134
N68 G01 X6.322575
N69 G01 X6.826875
N70 G01 X7.240853
N71 G01 X7.474186
N72 G01 X7.880638
N73 G03 X7.892876 Y11.11911 I0 J0.25
N74 G02 X7.949779 Y11.12163 I0.295082 J-6.020364
N75 G01 X7.951918 Y11.07099
N76 G03 X7.594301 Y11.010977 I0.429064 J-3.652345
N77 G03 X7.272429 Y10.849867 I0.151828 J-0.705408
N78 G03 X7.237517 Y10.812562 I0.164123 J-0.188583
N79 G03 X7.099418 Y10.49033 I0.575311 J-0.437271
N80 G03 X7.098154 Y10.481494 I0.246812 J-0.039799
N81 G03 X7.073649 Y10.034694 I3.202714 J-0.399729
N82 G01 Y5.070986
N83 G03 X7.091117 Y4.78577 I1.835315 J-0.03074
N84 G03 X7.096463 Y4.758625 I0.247586 J0.034659
N85 G03 X7.255994 Y4.497573 I0.503608 J0.128489
N86 G03 X7.281705 Y4.477683 I0.165504 J0.187373
N87 G03 X7.606227 Y4.354411 I0.425068 J0.63022
N88 G03 X7.986167 Y4.313803 I0.85617 J6.212859
N89 G01 X7.982671 Y4.25
N90 G01 X7.780713
N91 G03 X7.421324 Y4.257527 I-0.348277 J-8.045609
N92 G01 X7.027523
N93 G03 X6.653998 Y4.265054 I-0.382894 J-9.72949
N94 G03 X6.653367 Y4.265053 I-0.000241 J-0.25
N95 G03 X6.331921 Y4.257527 I0.01148 J-7.358241
N96 G01 X6.006576
N97 G03 X5.699057 Y4.25 I-0.006197 J-6.032565
N98 G01 X5.550285
N99 G01 X5.547148 Y4.305685
N100 G03 X5.88075 Y4.356689 I-0.484592 J4.286034
N101 G03 X5.898551 Y4.360808 I-0.047422 J0.245461
N102 G03 X6.208865 Y4.527048 I-0.203287 J0.752216
N103 G03 X6.235954 Y4.554789 I-0.164785 J0.188005
N104 G03 X6.382405 Y4.900747 I-0.495165 J0.413591
N105 G03 X6.41451 Y5.341888 I-2.454393 J0.400363
N106 G01 Y7.51505
N107 G03 X6.16451 Y7.76505 I-0.25 J0
N108 G01 X2.521503
N109 G03 X2.271503 Y7.51505 I0 J-0.25
N110 G01 Y5.071018
N111 G03 X2.288857 Y4.779065 I1.915818 J-0.032612
N112 G03 X2.291326 Y4.764303 I0.2477 J0.033837
N113 G03 X2.4502 Y4.494218 I0.466009 J0.092352
N114 G03 X2.469511 Y4.479406 I0.161626 J0.190728
N115 G03 X2.786934 Y4.354704 I0.42349 J0.611631
N116 G03 X2.788125 Y4.354535 I0.035644 J0.247446
N117 G03 X3.161457 Y4.314106 I0.851887 J6.122518
N118 G01 X3.157944 Y4.25
N119 G01 X2.963513
N120 G03 X2.60902 Y4.257532 I-0.348277 J-8.045609
N121 G03 X2.217622 Y4.265056 I-0.389746 J-10.09117
N122 G03 X1.844686 Y4.27258 I-0.398222 J-10.491744
N123 G03 X1.843573 I-0.000602 J-0.249999
N124 G03 X1.522307 Y4.265054 I0.015357 J-7.516004
N125 G01 X1.189364
N126 G03 X0.87449 Y4.257527 I-0.005909 J-6.342672
N127 G01 X0.728907
N128 G01 X0.72657 Y4.312831
N129 G03 X1.06355 Y4.364216 I-0.481213 J4.286415
N130 G03 X1.076964 Y4.367192 I-0.047422 J0.245461
N131 G03 X1.397153 Y4.532807 I-0.191138 J0.761858
N132 G03 X1.423557 Y4.55911 I-0.162746 J0.189773
N133 G03 X1.57906 Y4.893476 I-0.509413 J0.440256
N134 G03 X1.612364 Y5.349479 I-2.514961 J0.412898
N135 G01 Y10.305041
N136 G03 X1.5844 Y10.599982 I-1.309217 J0.024666
N137 G03 X1.584365 Y10.600151 I-0.244617 J-0.051601
N138 G03 X1.391318 Y10.88972 I-0.459635 J-0.09729
N139 G03 X1.389255 Y10.891127 I-0.141857 J-0.205856
N140 G03 X1.068266 Y11.013919 I-0.425068 J-0.63022
N141 G03 X0.696443 Y11.058105 I-0.684995 J-4.177676
N142 G01 X0.69921 Y11.126337
N143 G01 X0.925806
N144 G01 X1.181719
N145 G01 X1.663439
N146 G01 X2.318277
N147 G01 X2.754836
N148 G01 X2.965589
N149 G01 X3.131499
N150 G01 X3.135425 Y11.070591
N151 G03 X2.783403 Y11.010708 I0.420474 J-3.536366
N152 G03 X2.780837 Y11.010123 I0.054229 J-0.244048
N153 G03 X2.468151 Y10.84799 I0.162242 J-0.69548
N154 G03 X2.442533 Y10.821548 I0.166256 J-0.186706
N155 G03 X2.29554 Y10.470244 I0.495165 J-0.413591
N156 G03 X2.271503 Y10.034746 I3.124909 J-0.39089
N157 G01 Y8.252684
N158 G03 X2.521503 Y8.002684 I0.25 J0
N159 G01 X6.16451
N160 G03 X6.41451 Y8.252684 I0 J0.25
N161 G01 X6.61451
N162 G01 Y10.302281
N163 G03 X6.582185 Y10.641532 I-1.467661 J0.031322
N164 G03 X6.454518 Y10.91881 I-0.669662 J-0.140303
N165 G01 X6.826875
N166 G01 X7.067291
N167 G03 X6.901968 Y10.522169 I0.745538 J-0.543519
N168 G03 X6.899694 Y10.506263 I0.444261 J-0.071638
N169 G03 X6.873649 Y10.033257 I3.401174 J-0.424499
N170 G01 Y5.072618
N171 G03 X6.893048 Y4.758043 I2.035315 J-0.032372
N172 G03 X6.902671 Y4.709182 I0.445655 J0.062386
N173 G03 X7.022331 Y4.457877 I0.6974 J0.177932
N174 G03 X6.65419 Y4.465054 I-0.377702 J-9.92984
N175 G03 X6.653055 Y4.465053 I-0.000433 J-0.45
N176 G03 X6.416709 Y4.460988 I0.011792 J-7.558241
N177 G03 X6.58066 Y4.873874 I-0.67592 J0.507392
N178 G03 X6.61451 Y5.343496 I-2.652647 J0.427235
N179 G01 Y7.51505
N180 G03 X6.422336 Y7.883867 I-0.45 J0
N181 G03 X6.61451 Y8.252684 I-0.257826 J0.368817
N182 G01 X6.71451
N183 G01 Y10.301232
N184 G03 X6.68001 Y10.662277 I-1.567661 J0.032372
N185 G03 X6.629541 Y10.81881 I-0.767487 J-0.161049
N186 G01 X6.826875
N187 G01 X6.891386
N188 G03 X6.803244 Y10.538089 I0.921442 J-0.443519
N189 G03 X6.800464 Y10.518648 I0.542986 J-0.087557
N190 G03 X6.773649 Y10.032554 I3.500405 J-0.436884
N191 G01 Y5.073403
N192 G03 X6.794014 Y4.74418 I2.135315 J-0.033157
N193 G03 X6.805775 Y4.68446 I0.544689 J0.07625
N194 G03 X6.84712 Y4.563015 I0.794296 J0.202654
N195 G03 X6.654286 Y4.565053 I-0.20249 J-10.034978
N196 G03 X6.652899 I-0.000529 J-0.55
N197 G03 X6.595441 Y4.564748 I0.011948 J-7.658241
N198 G03 X6.679758 Y4.860281 I-0.854652 J0.403632
N199 G03 X6.71451 Y5.344278 I-2.751745 J0.440829
N200 G01 Y7.51505
N201 G03 X6.572523 Y7.883867 I-0.55 J0
N202 G03 X6.71451 Y8.252684 I-0.408012 J0.368817
N203 G00 Z1.5
N204 G00 X9.783952 Y7.0382
N205 G01 F30 Z-0.1
N206 G03 F100 X9.760097 Y7.029456 I0.211737 J-0.614546
N207 G02 X9.784075 Y7.075278 I1.764642 J-0.894242
N208 G01 X9.879923 Y6.858508
N209 G03 X9.545899 Y6.409923 I0.115767 J-0.434854
N210 G03 X9.721445 Y5.585225 I2.363979 J0.072167
N211 G03 X10.158606 Y4.901975 I1.991927 J0.793007
N212 G03 X10.169827 Y4.890569 I0.326331 J0.309852
N213 G03 X10.788793 Y4.491236 I1.280645 J1.305635
N214 G03 X10.799275 Y4.487318 I0.162809 J0.419515
N215 G03 X11.460667 Y4.370437 I0.670301 J1.863283
N216 G03 X11.550908 Y4.371859 I0.014911 J1.918445
N217 G02 X11.384948 Y4.328801 I-0.432407 J1.325292
N218 G02 X11.123428 Y4.299402 I-0.313317 J1.609225
N219 G02 X10.406539 Y4.443614 I-0.013754 J1.78558
N220 G02 X9.841939 Y4.835027 I0.683594 J1.588979
N221 G02 X9.484638 Y5.42001 I1.298408 J1.194662
N222 G03 X9.484243 Y5.421077 I-0.422281 J-0.155495
N223 G02 X9.354284 Y6.157511 I1.950795 J0.723942
N224 G03 X9.354268 Y6.164928 I-0.449992 J0.002702
N225 G02 X9.508102 Y6.958711 I2.015892 J0.021121
N226 G03 X9.508904 Y6.960657 I-0.415637 J0.172469
N227 G02 X9.924867 Y7.613509 I2.015835 J-0.825442
N228 G02 X10.27252 Y7.903684 I1.446199 J-1.379314
N229 G00 Z1.5
N230 G00 X11.181515 Y8.201308
N231 G01 F30 Z-0.1
N232 G02 F100 X11.208669 Y8.20161 I0.031216 J-1.584903
N233 G03 X11.209129 Y8.201611 I-0.001153 J0.449999
N234 G02 X11.728324 Y8.10931 I0.005292 J-1.47662
N235 G03 X11.735102 Y8.106855 I0.156611 J0.421868
N236 G02 X12.156971 Y7.857064 I-0.420914 J-1.192019
N237 G03 X12.158572 Y7.855639 I0.300006 J0.335405
N238 G02 X12.448128 Y7.467744 I-0.790035 J-0.891766
N239 G03 X12.449838 Y7.464122 I0.407774 J0.190317
N240 G02 X12.556477 Y6.978917 I-0.986402 J-0.471113
N241 G03 X12.556439 Y6.973115 I0.449963 J-0.005801
N242 G01 Y6.921466
N243 G01 X12.551406 Y6.873654
N244 G01 X11.980787
N245 G00 Z1.5
N246 G00 X12.04492 Y7.374725
N247 G01 F30 Z-0.1
N248 G02 F100 X12.085663 Y7.298572 I-0.676383 J-0.410852
N249 G03 X12.088893 Y7.291732 I0.770239 J0.359489
N250 G02 X12.09721 Y7.273654 I-0.625456 J-0.298723
N251 G01 X12.060662
N252 G00 Z1.5
N253 G00 X11.825643 Y7.84802
N254 G01 F30 Z-0.1
N255 G02 F100 X12.023635 Y7.707995 I-0.511455 J-0.933183
N256 G03 X12.025948 Y7.705937 I0.433342 J0.484474
N257 G02 X12.266896 Y7.383158 I-0.657411 J-0.742064
N258 G03 X12.269365 Y7.377927 I0.589006 J0.274903
N259 G02 X12.352919 Y7.073654 I-0.805929 J-0.384918
N260 G01 X12.064979
N261 G00 Z1.5
N262 G00 X12.659067 Y4.943615
N263 G01 F30 Z-0.1
N264 G02 F100 X12.279337 Y4.542416 I-1.84086 J1.36205
N265 G02 X11.816704 Y4.264113 I-1.560571 J2.070513
N266 G03 X11.813561 Y4.262617 I0.105866 J-0.226478
N267 G02 X11.423174 Y4.132488 I-0.695059 J1.434533
N268 G02 X11.127353 Y4.099427 I-0.351546 J1.805559
N269 G02 X10.327643 Y4.259834 I-0.017679 J1.985554
N270 G02 X9.696175 Y4.698072 I0.76249 J1.772759
N271 G02 X9.296957 Y5.350901 I1.444172 J1.331617
N272 G03 X9.296738 Y5.351494 I-0.234601 J-0.086386
N273 G02 X9.154288 Y6.158712 I2.1383 J0.793525
N274 G03 X9.154279 Y6.162832 I-0.249995 J0.001501
N275 G02 X9.323374 Y7.035364 I2.215881 J0.023217
N276 G03 X9.32382 Y7.036445 I-0.23091 J0.095816
N277 G02 X9.779045 Y7.750397 I2.200919 J-0.901231
N278 G02 X10.447004 Y8.229065 I1.59202 J-1.516202
N279 G03 X10.448893 Y8.22995 I-0.105079 J0.226845
N280 G02 X11.208157 Y8.401609 I0.763838 J-1.613545
N281 G03 X11.208412 Y8.40161 I-0.000641 J0.249999
N282 G02 X11.797929 Y8.296807 I0.006009 J-1.676619
N283 G03 X11.801694 Y8.295443 I0.087006 J0.234371
N284 G02 X12.290307 Y8.006133 I-0.487507 J-1.380607
N285 G03 X12.291197 Y8.005341 I0.16667 J0.186336
N286 G02 X12.629361 Y7.552329 I-0.92266 J-1.041469
N287 G03 X12.630311 Y7.550317 I0.226541 J0.105732
N288 G02 X12.75646 Y6.976338 I-1.166875 J-0.557308
N289 G03 X12.756439 Y6.973115 I0.249979 J-0.003223
N290 G01 Y6.910968
N291 G01 X12.743218 Y6.785369
N292 G02 X12.702062 Y6.691604 I-0.193526 J0.029029
N293 G02 X12.642753 Y6.673333 I-0.054721 J0.072231
N294 G03 X12.630095 Y6.673654 I-0.012658 J-0.249679
N295 G01 X9.995689
N296 G03 X9.745806 Y6.416025 I0 J-0.25
N297 G03 X9.90689 Y5.660134 I2.164072 J0.066064
N298 G03 X10.303641 Y5.039687 I1.806482 J0.718098
N299 G03 X10.309876 Y5.03335 I0.181295 J0.17214
N300 G03 X10.861153 Y4.677688 I1.140596 J1.162853
N301 G03 X10.866976 Y4.675511 I0.09045 J0.233064
N302 G03 X11.461895 Y4.570434 I0.6026 J1.67509
N303 G03 X12.069132 Y4.676137 I0.013684 J1.718448
N304 G03 X12.078706 Y4.679886 I-0.086347 J0.234615
N305 G03 X12.461063 Y4.895184 I-0.70881 J1.705973
N306 G03 X12.60122 Y4.999101 I-2.646578 J3.716043
N307 G01 X12.659067 Y4.943615
N308 G00 Z1.5
N309 G00 X14.670437 Y4.115265
N310 G01 F30 Z-0.1
N311 G02 F100 X14.676867 Y3.778035 I-30.089211 J-0.74243
N312 G01 Y3.473119
N313 G03 X14.676868 Y3.472252 I0.55 J0
N314 G02 X14.653813 Y3.127452 I-2.530214 J-0.003986
N315 G03 X14.655272 Y3.197769 I-3.558601 J0.109022
N316 G03 X14.670437 Y4.115265 I-27.407961 J0.911891
N317 G00 Z1.5
N318 G00 X14.701574 Y7.965065
N319 G01 F30 Z-0.1
N320 G01 F100 X14.678316 Y7.645268
N321 G03 X14.677313 Y7.627519 I0.548551 J-0.039895
N322 G03 X14.66974 Y7.330874 I10.050423 J-0.405012
N323 G03 X14.641565 Y7.591961 I-1.833912 J-0.065838
N324 G03 X14.514371 Y7.918867 I-0.753167 J-0.104849
N325 G03 X14.550492 Y7.927019 I-5.555503 J24.700312
N326 G03 X14.560355 Y7.929348 I-0.121474 J0.536418
N327 G03 X14.701574 Y7.965065 I-2.633599 J10.709695
N328 G01 X14.811429 Y8.09787
N329 G03 X14.808129 Y8.051565 I50.93935 J-3.653995
N330 G01 X14.778053 Y7.638014
N331 G03 X14.777232 Y7.623492 I0.448815 J-0.032641
N332 G03 X14.769349 Y7.284519 I9.950504 J-0.400985
N333 G03 X14.76934 Y7.281717 I0.449991 J-0.002802
N334 G01 Y6.905374
N335 G01 Y5.016128
N336 G01 Y4.165591
N337 G03 X14.769491 Y4.153951 I0.45 J0
N338 G02 X14.776867 Y3.778708 I-30.188265 J-0.781117
N339 G01 Y3.473119
N340 G03 X14.776868 Y3.47241 I0.45 J0
N341 G02 X14.719023 Y2.919667 I-2.630214 J-0.004143
N342 G03 X14.715883 Y2.903502 I0.440103 J-0.093859
N343 G02 X14.584706 Y2.432226 I-2.463635 J0.431844
N344 G02 X14.312617 Y1.967104 I-2.073998 J0.901113
N345 G03 X14.426399 Y2.300171 I-2.426813 J1.015011
N346 G03 X14.55529 Y3.199969 I-3.331187 J0.936303
N347 G03 X14.570417 Y4.143289 I-27.307979 J0.909691
N348 G01 Y7.223196
N349 G03 X14.542793 Y7.576195 I-1.734589 J0.04184
N350 G03 X14.35673 Y7.952765 I-0.654394 J-0.089083
N351 G03 X14.327274 Y7.979865 I-0.319109 J-0.317284
N352 G03 X14.528406 Y8.024549 I-5.368406 J24.639313
N353 G03 X14.536476 Y8.026455 I-0.099388 J0.438887
N354 G03 X14.811429 Y8.09787 I-2.60972 J10.612588
N355 G01 X15.032421 Y8.371868
N356 G03 X15.007616 Y8.037247 I50.718358 J-3.927992
N357 G01 X14.977526 Y7.623507
N358 G03 X14.97707 Y7.615439 I0.249341 J-0.018134
N359 G03 X14.969345 Y7.283274 I9.750666 J-0.392932
N360 G03 X14.96934 Y7.281717 I0.249995 J-0.001557
N361 G01 Y6.905374
N362 G01 Y5.016128
N363 G01 Y4.165591
N364 G03 X14.969424 Y4.159125 I0.25 J0
N365 G02 X14.976867 Y3.780049 I-30.388198 J-0.78629
N366 G01 Y3.473119
N367 G03 X14.976868 Y3.472725 I0.25 J0
N368 G02 X14.914624 Y2.877952 I-2.830214 J-0.004459
N369 G03 X14.91288 Y2.868971 I0.244502 J-0.052144
N370 G02 X14.769753 Y2.356246 I-2.660632 J0.466375
N371 G02 X14.21114 Y1.553866 I-2.259045 J0.977092
N372 G03 X14.209712 Y1.55249 I0.172717 J-0.180745
N373 G02 X13.338024 Y0.904442 I-2.888898 J2.975567
N374 G01 X13.298295 Y0.968867
N375 G03 X13.869774 Y1.578185 I-2.320833 J2.749359
N376 G03 X13.873227 Y1.58297 I-0.200969 J0.148699
N377 G03 X14.23354 Y2.35315 I-1.987423 J1.399146
N378 G03 X14.355324 Y3.204324 I-3.138328 J0.883324
N379 G03 X14.370417 Y4.143165 I-27.108013 J0.905336
N380 G01 Y7.225682
N381 G03 X14.345172 Y7.54502 I-1.534589 J0.039354
N382 G03 X14.214904 Y7.811749 I-0.456774 J-0.057908
N383 G03 X14.191013 Y7.832891 I-0.177283 J-0.176269
N384 G03 X13.95134 Y7.946702 I-0.377656 J-0.486029
N385 G03 X13.686919 Y8.001693 I-1.134601 J-4.792434
N386 G01 X13.683969 Y8.046686
N387 G02 X14.028868 Y8.12094 I25.717643 J-118.616299
N388 G03 X14.484234 Y8.21961 I-5.07 J24.498239
N389 G03 X14.488717 Y8.220669 I-0.055215 J0.243826
N390 G03 X14.866333 Y8.320853 I-2.561961 J10.418374
N391 G03 X14.869029 Y8.321637 I-0.068498 J0.240433
N392 G03 X15.032421 Y8.371868 I-2.567981 J8.644168
N393 G00 Z1.5
N394 G00 X14.611981 Y10.284339
N395 G01 F30 Z-0.1
N396 G02 F100 X14.622564 Y10.31228 I0.038715 J0.00131
N397 G03 X14.623066 Y10.312811 I-0.47204 J0.446854
N398 G03 X14.675346 Y10.312964 I0.024231 J0.649548
N399 G02 X14.705316 Y10.301237 I0.001718 J-0.039769
N400 G03 X14.71694 Y10.289816 I0.461336 J0.457896
N401 G02 X14.720172 Y10.281916 I-0.007267 J-0.007584
N402 G03 Y10.242803 I0.649706 J-0.019556
N403 G02 X14.716941 Y10.234904 I-0.010498 J-0.000316
N404 G03 X14.716437 Y10.234421 I0.449712 J-0.469318
N405 G02 X14.676165 Y10.219246 I-0.037846 J0.039411
N406 G03 X14.6193 Y10.219284 I-0.028867 J-0.649359
N407 G02 X14.614619 Y10.219544 I-0.001026 J0.023807
N408 G02 X14.611884 Y10.237696 I0.046475 J0.016283
N409 G03 X14.611981 Y10.284339 I-0.649532 J0.024664
N410 G01 X14.591992 Y10.283663
N411 G02 X14.60804 Y10.326029 I0.058704 J0.001986
N412 G03 X14.60968 Y10.327768 I-0.457516 J0.433104
N413 G02 X14.622131 Y10.332862 I0.011805 J-0.01109
N414 G03 X14.674483 Y10.332946 I0.025166 J0.629497
N415 G02 X14.719511 Y10.315326 I0.002581 J-0.05975
N416 G03 X14.730778 Y10.304256 I0.447141 J0.443807
N417 G02 X14.740163 Y10.281314 I-0.021104 J-0.022025
N418 G03 Y10.243405 I0.629715 J-0.018954
N419 G02 X14.730778 Y10.220463 I-0.030489 J-0.000918
N420 G03 X14.73029 Y10.219995 I0.435874 J-0.454878
N421 G02 X14.675277 Y10.199266 I-0.051698 J0.053837
N422 G03 X14.620162 Y10.199302 I-0.027979 J-0.629378
N423 G02 X14.599985 Y10.20326 I-0.001888 J0.043788
N424 G02 X14.591899 Y10.238455 I0.061109 J0.032567
N425 G03 X14.591992 Y10.283663 I-0.629546 J0.023905
N426 G01 X14.412095 Y10.277576
N427 G02 X14.477321 Y10.449773 I0.238601 J0.008073
N428 G03 X14.478492 Y10.451015 I-0.326797 J0.30936
N429 G02 X14.629322 Y10.512718 I0.142992 J-0.134337
N430 G03 X14.666716 Y10.512778 I0.017976 J0.449641
N431 G02 X14.847266 Y10.442128 I0.010348 J-0.239582
N432 G03 X14.855313 Y10.434221 I0.319387 J0.317005
N433 G02 X14.920082 Y10.275898 I-0.14564 J-0.151989
N434 G03 Y10.24882 I0.449796 J-0.013539
N435 G02 X14.855313 Y10.090498 I-0.210407 J-0.006333
N436 G03 X14.854965 Y10.090164 I0.311339 J-0.324913
N437 G02 X14.667283 Y10.019443 I-0.176373 J0.183668
N438 G03 X14.627915 Y10.01947 I-0.019985 J-0.449556
N439 G02 X14.47127 Y10.074303 I-0.009641 J0.223621
N440 G02 X14.412028 Y10.245285 I0.189824 J0.161524
N441 G03 X14.412095 Y10.277576 I-0.449676 J0.017075
N442 G01 X14.212209 Y10.270813
N443 G02 X14.332078 Y10.587267 I0.438486 J0.014836
N444 G03 X14.332729 Y10.587957 I-0.181554 J0.171867
N445 G02 X14.637311 Y10.712558 I0.288756 J-0.271279
N446 G03 X14.658086 Y10.712592 I0.009987 J0.2498
N447 G02 X14.989215 Y10.583019 I0.018978 J-0.439396
N448 G03 X14.993686 Y10.578627 I0.177437 J0.176114
N449 G02 X15.119991 Y10.269881 I-0.284013 J-0.296395
N450 G03 Y10.254838 I0.249887 J-0.007522
N451 G02 X14.993686 Y9.946093 I-0.410317 J-0.012351
N452 G03 X14.993493 Y9.945907 I0.172966 J-0.180507
N453 G02 X14.658401 Y9.819641 I-0.314901 J0.327925
N454 G03 X14.63653 Y9.819655 I-0.011103 J-0.249753
N455 G02 X14.328694 Y9.933617 I-0.018256 J0.423436
N456 G02 X14.212172 Y10.252874 I0.3324 J0.302211
N457 G03 X14.212209 Y10.270813 I-0.24982 J0.009486
N458 G00 Z1.5
N459 G00 X17.171708 Y9.356577
N460 G01 F30 Z-0.1
N461 G01 F100 X17.161054 Y9.031608
N462 G03 X17.15322 Y8.655107 I13.029533 J-0.45943
N463 G03 X17.153209 Y8.651608 I0.549989 J-0.003498
N464 G01 Y8.418275
N465 G03 X17.282078 Y8.064512 I0.55 J0
N466 G03 X17.153209 Y7.710749 I0.421131 J-0.353763
N467 G01 Y5.489034
N468 G03 X17.213382 Y4.926141 I2.222415 J-0.047089
N469 G03 X17.21471 Y4.920694 I0.534988 J0.127622
N470 G03 X17.417606 Y4.487849 I1.20318 J0.300015
N471 G03 X17.418113 Y4.487159 I0.443667 J0.325053
N472 G02 X17.306799 Y4.556925 I0.149352 J0.361981
N473 G02 X17.194155 Y4.730763 I0.357601 J0.355132
N474 G02 X17.139114 Y5.147764 I1.334355 J0.388259
N475 G03 X17.139231 Y5.159139 I-0.549882 J0.011375
N476 G01 Y5.354837
N477 G01 Y5.783869
N478 G01 Y6.574191
N479 G01 Y7.710749
N480 G03 X17.026283 Y8.044644 I-0.55 J0
N481 G03 X17.146758 Y8.388168 I-0.429525 J0.343524
N482 G01 Y8.862361
N483 G03 Y8.862636 I-0.55 J0
N484 G03 X17.139231 Y9.242105 I-9.816546 J-0.004903
N485 G01 Y9.342827
N486 G02 X17.171708 Y9.356577 I0.881638 J-2.037156
N487 G01 X17.276841 Y9.502865
N488 G02 X17.276698 Y9.500615 I-45.56201 J2.897024
N489 G03 X17.276031 Y9.486784 I0.449092 J-0.028577
N490 G01 X17.260996 Y9.028207
N491 G03 X17.253218 Y8.654471 I12.92959 J-0.456029
N492 G03 X17.253209 Y8.651608 I0.449991 J-0.002862
N493 G01 Y8.418275
N494 G03 X17.425087 Y8.064512 I0.45 J0
N495 G03 X17.253209 Y7.710749 I0.278122 J-0.353763
N496 G01 Y5.487962
N497 G03 X17.310652 Y4.949345 I2.122415 J-0.046017
N498 G03 X17.31174 Y4.944888 I0.437718 J0.104418
N499 G03 X17.498273 Y4.54695 I1.106151 J0.27582
N500 G03 X17.54043 Y4.497372 I0.363 J0.265953
N501 G03 X17.771219 Y4.329793 I0.616396 J0.606188
N502 G02 X17.747144 Y4.329568 I-0.029034 J1.819645
N503 G03 X17.745131 Y4.329558 I0.001226 J-0.449998
N504 G02 X17.43188 Y4.376546 I-0.007333 J1.01878
N505 G03 X17.426134 Y4.378313 I-0.135122 J-0.429234
N506 G02 X17.237955 Y4.484344 I0.141331 J0.470827
N507 G02 X17.099295 Y4.698866 I0.426445 J0.427713
N508 G02 X17.039135 Y5.149832 I1.429215 J0.420156
N509 G03 X17.039231 Y5.159139 I-0.449904 J0.009307
N510 G01 Y5.354837
N511 G01 Y5.783869
N512 G01 Y6.574191
N513 G01 Y7.710749
N514 G03 X16.889223 Y8.046167 I-0.45 J0
N515 G03 X17.046758 Y8.388168 I-0.292464 J0.342001
N516 G01 Y8.862361
N517 G03 Y8.862586 I-0.45 J0
N518 G03 X17.039231 Y9.240141 I-9.716546 J-0.004853
N519 G01 Y9.409576
N520 G01 X17.074197 Y9.423729
N521 G03 X17.086597 Y9.428965 I-0.168837 J0.417126
N522 G02 X17.276841 Y9.502865 I0.934273 J-2.123293
N523 G01 X17.495948 Y9.815242
N524 G02 X17.476294 Y9.487914 I-45.781117 J2.584647
N525 G03 X17.475924 Y9.48023 I0.249495 J-0.015876
N526 G01 X17.46088 Y9.021405
N527 G03 X17.453214 Y8.653199 I12.729706 J-0.449226
N528 G03 X17.453209 Y8.651608 I0.249995 J-0.00159
N529 G01 Y8.418275
N530 G03 X17.706434 Y8.168296 I0.25 J0
N531 G01 X18.770001 Y8.18202
N532 G01 X18.755817 Y7.960749
N533 G01 X17.703209
N534 G03 X17.453209 Y7.710749 I0 J-0.25
N535 G01 Y5.485741
N536 G03 X17.505194 Y4.995752 I1.922415 J-0.043796
N537 G03 X17.505798 Y4.993277 I0.243177 J0.05801
N538 G03 X17.659606 Y4.665151 I0.912093 J0.227432
N539 G03 X17.683027 Y4.637608 I0.201667 J0.147751
N540 G03 X17.960552 Y4.46868 I0.473799 J0.465952
N541 G03 X17.96961 Y4.466065 I0.07384 J0.238847
N542 G03 X18.277542 Y4.427427 I0.293794 J1.09507
N543 G03 X18.635496 Y4.461443 I-0.011428 J2.020662
N544 G02 X18.877157 Y4.500793 I2.30126 J-13.371168
N545 G01 X18.891182 Y4.422485
N546 G02 X18.355247 Y4.224788 I-1.733569 J3.874232
N547 G03 X18.350498 Y4.223339 I0.070542 J-0.239841
N548 G02 X17.747689 Y4.129569 I-0.608313 J1.926098
N549 G03 X17.746571 Y4.129564 I0.000681 J-0.249999
N550 G02 X17.371826 Y4.185775 I-0.008772 J1.218774
N551 G03 X17.368633 Y4.186757 I-0.075068 J-0.238463
N552 G02 X17.100197 Y4.339291 I0.198831 J0.662383
N553 G02 X16.909456 Y4.635568 I0.564203 J0.572767
N554 G02 X16.839178 Y5.153968 I1.619054 J0.483455
N555 G03 X16.839231 Y5.159139 I-0.249947 J0.00517
N556 G01 Y5.354837
N557 G01 Y5.783869
N558 G01 Y6.574191
N559 G01 Y7.710749
N560 G03 X16.589231 Y7.960749 I-0.25 J0
N561 G01 X16.140826
N562 G01 X16.151924 Y8.102815
N563 G01 X16.616144 Y8.138921
N564 G03 X16.846758 Y8.388168 I-0.019386 J0.249247
N565 G01 Y8.862361
N566 G03 Y8.862486 I-0.25 J0
N567 G03 X16.839231 Y9.236184 I-9.516547 J-0.004753
N568 G01 Y9.544386
N569 G01 X16.999158 Y9.609118
N570 G03 X17.006047 Y9.612027 I-0.093798 J0.231737
N571 G02 X17.218319 Y9.694197 I1.014823 J-2.306355
N572 G03 X17.23081 Y9.698767 I-0.079626 J0.23698
N573 G03 X17.4195 Y9.777388 I-2.160469 J5.450865
N574 G03 X17.431142 Y9.782839 I-0.100162 J0.229058
N575 G01 X17.495948 Y9.815242
N576 G00 Z1.5
N577 G00 X20.253834 Y7.0382
N578 G01 F30 Z-0.1
N579 G03 F100 X20.229979 Y7.029456 I0.211737 J-0.614546
N580 G02 X20.253958 Y7.075278 I1.764642 J-0.894242
N581 G01 X20.349805 Y6.858508
N582 G03 X20.015781 Y6.409923 I0.115767 J-0.434854
N583 G03 X20.191327 Y5.585225 I2.363979 J0.072167
N584 G03 X20.628488 Y4.901975 I1.991927 J0.793007
N585 G03 X20.63971 Y4.890569 I0.326331 J0.309852
N586 G03 X21.258676 Y4.491236 I1.280645 J1.305635
N587 G03 X21.269158 Y4.487318 I0.162809 J0.419515
N588 G03 X21.93055 Y4.370437 I0.670301 J1.863283
N589 G03 X22.020791 Y4.371859 I0.014911 J1.918445
N590 G02 X21.85483 Y4.328801 I-0.432407 J1.325292
N591 G02 X21.593311 Y4.299402 I-0.313317 J1.609225
N592 G02 X20.876421 Y4.443614 I-0.013754 J1.78558
N593 G02 X20.311821 Y4.835027 I0.683594 J1.588979
N594 G02 X19.95452 Y5.42001 I1.298408 J1.194662
N595 G03 X19.954126 Y5.421077 I-0.422281 J-0.155495
N596 G02 X19.824167 Y6.157511 I1.950795 J0.723942
N597 G03 X19.82415 Y6.164928 I-0.449992 J0.002702
N598 G02 X19.977984 Y6.958711 I2.015892 J0.021121
N599 G03 X19.978786 Y6.960657 I-0.415637 J0.172469
N600 G02 X20.394749 Y7.613509 I2.015835 J-0.825442
N601 G02 X20.742402 Y7.903684 I1.446199 J-1.379314
N602 G00 Z1.5
N603 G00 X21.651398 Y8.201308
N604 G01 F30 Z-0.1
N605 G02 F100 X21.678552 Y8.20161 I0.031216 J-1.584903
N606 G03 X21.679011 Y8.201611 I-0.001153 J0.449999
N607 G02 X22.198206 Y8.10931 I0.005292 J-1.47662
N608 G03 X22.204984 Y8.106855 I0.156611 J0.421868
N609 G02 X22.626854 Y7.857064 I-0.420914 J-1.192019
N610 G03 X22.628455 Y7.855639 I0.300006 J0.335405
N611 G02 X22.918011 Y7.467744 I-0.790035 J-0.891766
N612 G03 X22.919721 Y7.464122 I0.407774 J0.190317
N613 G02 X23.026359 Y6.978917 I-0.986402 J-0.471113
N614 G03 X23.026322 Y6.973115 I0.449963 J-0.005801
N615 G01 Y6.921466
N616 G01 X23.021289 Y6.873654
N617 G01 X22.450669
N618 G00 Z1.5
N619 G00 X22.514802 Y7.374725
N620 G01 F30 Z-0.1
N621 G02 F100 X22.555545 Y7.298572 I-0.676383 J-0.410852
N622 G03 X22.558775 Y7.291732 I0.770239 J0.359489
N623 G02 X22.567093 Y7.273654 I-0.625456 J-0.298723
N624 G01 X22.530544
N625 G00 Z1.5
N626 G00 X22.295525 Y7.84802
N627 G01 F30 Z-0.1
N628 G02 F100 X22.493518 Y7.707995 I-0.511455 J-0.933183
N629 G03 X22.49583 Y7.705937 I0.433342 J0.484474
N630 G02 X22.736778 Y7.383158 I-0.657411 J-0.742064
N631 G03 X22.739248 Y7.377927 I0.589006 J0.274903
N632 G02 X22.822802 Y7.073654 I-0.805929 J-0.384918
N633 G01 X22.534862
N634 G00 Z1.5
N635 G00 X23.12895 Y4.943615
N636 G01 F30 Z-0.1
N637 G02 F100 X22.74922 Y4.542416 I-1.84086 J1.36205
N638 G02 X22.286586 Y4.264113 I-1.560571 J2.070513
N639 G03 X22.283443 Y4.262617 I0.105866 J-0.226478
N640 G02 X21.893056 Y4.132488 I-0.695059 J1.434533
N641 G02 X21.597236 Y4.099427 I-0.351546 J1.805559
N642 G02 X20.797525 Y4.259834 I-0.017679 J1.985554
N643 G02 X20.166057 Y4.698072 I0.76249 J1.772759
N644 G02 X19.76684 Y5.350901 I1.444172 J1.331617
N645 G03 X19.766621 Y5.351494 I-0.234601 J-0.086386
N646 G02 X19.624171 Y6.158712 I2.1383 J0.793525
N647 G03 X19.624161 Y6.162832 I-0.249995 J0.001501
N648 G02 X19.793257 Y7.035364 I2.215881 J0.023217
N649 G03 X19.793702 Y7.036445 I-0.23091 J0.095816
N650 G02 X20.248928 Y7.750397 I2.200919 J-0.901231
N651 G02 X20.916887 Y8.229065 I1.59202 J-1.516202
N652 G03 X20.918776 Y8.22995 I-0.105079 J0.226845
N653 G02 X21.678039 Y8.401609 I0.763838 J-1.613545
N654 G03 X21.678295 Y8.40161 I-0.000641 J0.249999
N655 G02 X22.267811 Y8.296807 I0.006009 J-1.676619
N656 G03 X22.271577 Y8.295443 I0.087006 J0.234371
N657 G02 X22.76019 Y8.006133 I-0.487507 J-1.380607
N658 G03 X22.761079 Y8.005341 I0.16667 J0.186336
N659 G02 X23.099243 Y7.552329 I-0.92266 J-1.041469
N660 G03 X23.100193 Y7.550317 I0.226541 J0.105732
N661 G02 X23.226342 Y6.976338 I-1.166875 J-0.557308
N662 G03 X23.226322 Y6.973115 I0.249979 J-0.003223
N663 G01 Y6.910968
N664 G01 X23.213101 Y6.785369
N665 G02 X23.171944 Y6.691604 I-0.193526 J0.029029
N666 G02 X23.112636 Y6.673333 I-0.054721 J0.072231
N667 G03 X23.099978 Y6.673654 I-0.012658 J-0.249679
N668 G01 X20.465572
N669 G03 X20.215688 Y6.416025 I0 J-0.25
N670 G03 X20.376772 Y5.660134 I2.164072 J0.066064
N671 G03 X20.773524 Y5.039687 I1.806482 J0.718098
N672 G03 X20.779758 Y5.03335 I0.181295 J0.17214
N673 G03 X21.331035 Y4.677688 I1.140596 J1.162853
N674 G03 X21.336859 Y4.675511 I0.09045 J0.233064
N675 G03 X21.931777 Y4.570434 I0.6026 J1.67509
N676 G03 X22.539014 Y4.676137 I0.013684 J1.718448
N677 G03 X22.548589 Y4.679886 I-0.086347 J0.234615
N678 G03 X22.930945 Y4.895184 I-0.70881 J1.705973
N679 G03 X23.071103 Y4.999101 I-2.646578 J3.716043
N680 G01 X23.12895 Y4.943615
N681 G00 Z1.5
N682 G00 X25.101588 Y4.998655
N683 G01 F30 Z-0.1
N684 G01 F100 Y4.988776
N685 G03 X25.110578 Y4.705071 I3.439108 J-0.033018
N686 G03 X25.114274 Y4.670009 I0.548537 J0.040089
N687 G03 X25.136371 Y4.564886 I0.759422 J0.104749
N688 G03 X25.020425 Y4.565055 I-0.094626 J-25.225606
N689 G03 X25.084224 Y4.819378 I-0.860796 J0.351104
N690 G03 X25.101588 Y4.998655 I-3.493252 J0.428822
N691 G00 Z1.5
N692 G00 X25.131487 Y6.429405
N693 G01 F30 Z-0.1
N694 G03 F100 X25.110192 Y6.347435 I0.520102 J-0.17887
N695 G01 Y6.465811
N696 G01 X25.244756 Y6.442855
N697 G03 X25.202488 Y6.27897 I0.406833 J-0.19232
N698 G03 X25.201588 Y6.044793 I0.434047 J-0.118757
N699 G01 Y4.988292
N700 G03 X25.210312 Y4.71236 I3.339108 J-0.032534
N701 G03 X25.213336 Y4.683673 I0.448803 J0.0328
N702 G03 X25.284004 Y4.463896 I0.66036 J0.091085
N703 G03 X25.018983 Y4.465054 I-0.242259 J-25.124616
N704 G03 X24.855497 Y4.464405 I0.015683 J-24.546652
N705 G03 X24.984858 Y4.830657 I-0.695868 J0.451754
N706 G03 X25.010192 Y5.289939 I-3.393886 J0.417542
N707 G01 Y10.798392
N708 G03 X24.982706 Y11.157965 I-1.792013 J0.043856
N709 G03 X24.796505 Y11.535557 I-0.654532 J-0.088061
N710 G03 X24.734019 Y11.587927 I-0.319109 J-0.317284
N711 G03 X24.724328 Y11.594558 I-0.491945 J-0.708625
N712 G03 X24.874913 Y11.630977 I-10.916345 J45.466433
N713 G03 X25.257397 Y11.727387 I-2.283221 J9.865039
N714 G03 X25.248789 Y11.637412 I77.23985 J-7.434849
N715 G03 X25.209931 Y11.139983 I14.007028 J-1.344428
N716 G03 X25.209357 Y11.127637 I0.449184 J-0.027087
N717 G03 X25.201594 Y10.716208 I14.798799 J-0.48501
N718 G03 X25.201588 Y10.713972 I0.449994 J-0.002236
N719 G01 Y10.299994
N720 G01 Y6.943144
N721 G01 X25.420667 Y6.546146
N722 G03 X25.496019 Y6.446234 I0.230922 J0.095787
N723 G03 X25.401588 Y6.250535 I0.15557 J-0.195699
N724 G01 Y6.245655
N725 G03 Y6.074771 I0.234946 J-0.085442
N726 G01 Y4.987303
N727 G03 X25.40978 Y4.726938 I3.139108 J-0.031545
N728 G03 X25.41146 Y4.711001 I0.249335 J0.018222
N729 G03 X25.508743 Y4.484006 I0.462236 J0.063758
N730 G03 X25.596593 Y4.414165 I0.195533 J0.155778
N731 G03 X25.82052 Y4.346986 I0.328564 J0.688413
N732 G03 X25.830628 Y4.345796 I0.034294 J0.247637
N733 G03 X26.096106 Y4.323083 I1.115992 J11.481394
N734 G01 X26.092192 Y4.250673
N735 G02 X25.65766 Y4.257453 I0.19313 J26.305268
N736 G03 X25.019138 Y4.265054 I-0.615915 J-24.918173
N737 G03 X24.426108 Y4.257452 I0.015528 J-24.346652
N738 G02 X24.02425 Y4.250923 I-0.621257 J25.86689
N739 G01 X24.022462 Y4.292055
N740 G03 X24.309111 Y4.333203 I-0.588031 J5.115429
N741 G03 X24.319338 Y4.335186 I-0.042467 J0.246367
N742 G03 X24.624615 Y4.49393 I-0.137367 J0.637074
N743 G03 X24.649198 Y4.520207 I-0.169799 J0.183489
N744 G03 X24.786107 Y4.853073 I-0.489569 J0.395952
N745 G03 X24.810192 Y5.2887 I-3.195135 J0.395126
N746 G01 Y10.800911
N747 G03 X24.785017 Y11.127261 I-1.592013 J0.041337
N748 G03 X24.654679 Y11.394542 I-0.456843 J-0.057357
N749 G03 X24.619964 Y11.423636 I-0.177283 J-0.176269
N750 G03 X24.363938 Y11.530647 I-0.37789 J-0.544334
N751 G03 X24.055883 Y11.597527 I-1.38385 J-5.631174
N752 G01 X24.051803 Y11.647301
N753 G02 X24.34791 Y11.711197 I5.110984 J-22.967353
N754 G03 X24.353375 Y11.712403 I-0.051159 J0.24471
N755 G03 X24.828699 Y11.825568 I-10.545393 J45.348588
N756 G03 X25.25153 Y11.933222 I-2.237007 J9.670448
N757 G03 X25.485314 Y12.001937 I-1.815874 J6.610058
N758 G03 X25.447883 Y11.618392 I77.011933 J-7.709399
N759 G03 X25.409569 Y11.127945 I13.807934 J-1.325408
N760 G03 X25.409249 Y11.121085 I0.249547 J-0.015048
N761 G03 X25.401592 Y10.715214 I14.598907 J-0.478459
N762 G03 X25.401588 Y10.713972 I0.249997 J-0.001242
N763 G01 Y10.299994
N764 G01 Y6.883219
N765 G00 Z1.5
N766 G00 X26.45182 Y6.316706
N767 G01 F30 Z-0.1
N768 G01 F100 X27.414231 Y5.178673
N769 G03 X27.853295 Y4.670342 I13.472033 J11.192501
N770 G03 X27.857958 Y4.665228 I0.334851 J0.300625
N771 G03 X28.065154 Y4.464202 I1.979092 J1.832549
N772 G03 X27.811744 Y4.465054 I-0.230491 J-30.876695
N773 G03 X27.567025 Y4.463439 I-0.008328 J-17.285677
N774 G03 X27.531607 Y4.753652 I-0.440169 J0.093549
N775 G03 X27.443224 Y4.889407 I-0.585172 J-0.284327
N776 G01 X27.357817 Y4.996166
N777 G03 X27.348359 Y5.007596 I-0.351391 J-0.281113
N778 G01 X26.199134 Y6.350846
N779 G03 X26.132035 Y6.42507 I-0.500363 J-0.384891
N780 G03 X26.15338 Y6.438164 I-0.224533 J0.389981
N781 G03 X26.295331 Y6.539403 I-1.148796 J1.760899
N782 G01 X26.589041 Y6.464172
N783 G01 X27.56751 Y5.30715
N784 G03 X28.002117 Y4.803953 I13.318754 J11.064024
N785 G03 X28.004708 Y4.801112 I0.186028 J0.167014
N786 G03 X28.30582 Y4.525093 I1.832342 J1.696665
N787 G03 X28.316117 Y4.517513 I0.153293 J0.197487
N788 G03 X28.659965 Y4.365816 I0.559151 J0.801866
N789 G03 X28.674682 Y4.362954 I0.055061 J0.243861
N790 G03 X28.963953 Y4.325076 I0.738456 J4.516023
N791 G01 X28.95994 Y4.250841
N792 G02 X28.5174 Y4.257464 I0.224165 J29.767589
N793 G03 X28.517364 Y4.257465 I-0.005599 J-0.249937
N794 G03 X27.81177 Y4.265054 I-0.682701 J-30.669958
N795 G03 X27.292778 Y4.257423 I-0.008354 J-17.085677
N796 G02 X26.944525 Y4.250891 I-0.540604 J19.534892
N797 G01 X26.942673 Y4.292868
N798 G03 X27.071884 Y4.313107 I-0.908916 J6.225195
N799 G03 X27.351718 Y4.666246 I0.054972 J0.243881
N800 G03 X27.288905 Y4.76215 I-0.405283 J-0.196921
N801 G01 X27.201643 Y4.871227
N802 G03 X27.196389 Y4.877577 I-0.195217 J-0.156174
N803 G01 X26.04346 Y6.225157
N804 G03 X25.876986 Y6.358683 I-0.344688 J-0.259201
N805 G03 X25.807158 Y6.446234 I-0.225398 J-0.108147
N806 G03 X25.875365 Y6.53047 I-0.15557 J0.195699
N807 G03 X26.027784 Y6.595888 I-0.261644 J0.819875
N808 G03 X26.044101 Y6.605669 I-0.120281 J0.219163
N809 G03 X26.431684 Y6.940935 I-1.039517 J1.593393
N810 G01 X26.820807 Y7.359991
N811 G03 X26.823205 Y7.36261 I-0.183198 J0.170113
N812 G03 X27.063393 Y7.648835 I-3.85273 J3.476952
N813 G03 X27.160511 Y7.791153 I-0.544129 J0.475607
N814 G03 X26.949497 Y8.156214 I-0.221827 J0.115295
N815 G03 X26.92641 Y8.163435 I-0.086082 J-0.234712
N816 G03 X26.735591 Y8.205633 I-0.664152 J-2.550712
N817 G01 X26.737432 Y8.236017
N818 G01 X26.78062
N819 G01 X26.916103
N820 G01 X27.16449
N821 G01 X27.585995
N822 G01 X28.120403
N823 G03 X28.124741 Y8.236055 I0 J0.25
N824 G03 X28.603371 Y8.248872 I-0.440835 J25.40534
N825 G01 X28.607224 Y8.194941
N826 G02 X28.437123 Y8.169849 I-26.259026 J177.427922
N827 G03 X28.1323 Y8.10859 I0.137551 J-1.473469
N828 G03 X27.856532 Y8.001326 I0.399098 J-1.434176
N829 G03 X27.85315 Y7.999573 I0.113334 J-0.222835
N830 G03 X27.537513 Y7.794894 I0.981896 J-1.859897
N831 G03 X26.926152 Y7.268782 I4.986025 J-6.412209
N832 G03 X26.718981 Y7.065497 I2.875988 J-3.138172
N833 G03 X26.569164 Y6.886157 I1.002092 J-0.98938
N834 G00 Z1.5
N835 G00 X27.387965 Y7.931869
N836 G01 F30 Z-0.1
N837 G03 F100 X27.369627 Y8.036017 I-0.449281 J-0.025421
N838 G01 X27.527951
N839 G03 X27.41444 Y7.952542 I1.307095 J-1.896341
N840 G03 X27.387965 Y7.931869 I5.109098 J-6.569857
N841 G00 Z1.5
N842 G00 X27.676803 Y4.564595
N843 G01 F30 Z-0.1
N844 G03 F100 X27.636268 Y4.764353 I-0.549947 J-0.007606
N845 G03 X27.778883 Y4.603537 I13.249996 J11.606822
N846 G03 X27.784583 Y4.597286 I0.409262 J0.36743
N847 G03 X27.814903 Y4.565056 I2.052467 J1.900491
N848 G03 X27.811731 Y4.565054 I0.01976 J-30.977549
N849 G03 X27.676803 Y4.564595 I-0.008315 J-17.385677
N850 G00 Z1.5
N851 G00 X25.105342 Y10.984932
N852 G01 F30 Z-0.1
N853 G03 F100 X25.081515 Y11.173492 I-1.887163 J-0.142684
N854 G03 X24.925773 Y11.540147 I-0.753341 J-0.103588
N855 G03 X25.144255 Y11.593911 I-2.33408 J9.955868
N856 G03 X25.110113 Y11.146003 I14.111562 J-1.300927
N857 G03 X25.10941 Y11.130912 I0.549003 J-0.033106
N858 G03 X25.105342 Y10.984932 I14.898746 J-0.488286
N859 G00 Z1.5
